X:530
T:Queen of the May
A:Wyresdale, Lancashire
B:H.S.J. Jackson, 1823
L:1/8
M:6/8
O:England
Z:Richard Robinson 
%%TranscriptionNotes:(dance notes not transcribed, incompletely legible)
%%TUNEURL: http://www.leeds.ac.uk/music/Info/RRTuneBk/gettune/000005c8.html
%%ID:000005c8
K:G
B/2c/2| \
d>ed dge | d>ed dba | gfe dcB | cBc A2 (B/2c/2) | \
d>ed dge | d>ed dba | gfe def | g2b g2 ||
F/2G/2| \
A>BA Add | BGG gfe | dcB gdB  | BAA A2 F/2G/2| \
A>BA Add | BGG  gfe | fga ge^c | ded def|
gab agf  | gfe  dcB | AcB cde  | G3 F2 g/2a/2 |\
bag agf  | gfe  dcB | (BA).c (ed).F  | A3 G2 H|]
%page:61
